X:1
T:MARCHE TRIOMPHALE
T:MARCHE TRIOMPHALE
T:PAR
T:CÉSAR DE SINGER.
T:F. L. T. No. 763.
T:F. L. T. No. 763.
T:F. L. T. No. 763.
T:F. L. T. No. 763.
Z:F. L. T. No. 763.
%%score { ( 1 4 ) | ( 2 3 ) }
L:1/8
Q:1/4=110
M:6/8
K:Eb
V:1 treble nm="Piano" snm="Pno."
V:4 treble 
V:2 bass 
V:3 bass 
V:1
"^Moderato ma non troppo." x6 |!ped! x6!ped-up! |!ped! x6!ped-up! |!ped! x6!ped-up! | %4
!ped! x6!ped-up! |!ped! x6!ped-up! |[Q:1/4=115] !^![G,B,E]3[Q:1/4=120] !^![A,B,DF]3 | %7
[Q:1/4=130] [G,B,EG]2 [B,B][Q:1/4=140] [B,B][A,A][F,F] || %8
"^Ben portando."[Q:1/4=150] [G,E]2 [G,E]{/F} [G,E]>DE |{/F} [G,E]>D[G,E] [G,E]2 [G,EG] | %10
 [A,DB]2 [A,DB] [A,DB]>A[A,F] | [G,E]2 [G,E] [G,E]2 B, | [G,E]2 [G,E]{/F} [G,E]>DE | %13
{/F} [G,E]>D[G,E] [G,E]2 [B,_DG] | [B,DF]2 [=B,DF] [=A,CEF]>E[A,C] |!<(! B,2 [fab]!<)!!>(! b3!>)! | %16
 [Ge]2 [Ge]{/f} [Ge]>d[Ge] |{/f} [Ge]>d[Ge] [Ge]2 [Geg] | [Afb]2 [Afb] [Afb]>af | %19
 [Ge]2 [Ge] [Ge]2 [Ge] | [Ge]2 [Ge]{/f} [Ge]>d[Ge] |!<(!{/f} [Ge]d[Ge]!<)! [Ge]2 !^![=EBg] | %22
 [FBdf]2 [F=Bdf] [F=Af]e[FAc] |"^quasi Tromba." [DFB]2 (3B/B/B/ B2 B || %24
 [DBf]2 [DBf] [DBf]>_g[DBf] | [EBf]2 e/d/ [EBe]2 [EBf] |!>(! [E=Ac_g]2 [EAcg] [cg]>f!>)![ce] | %27
 [DFd]2 (3B/B/B/ B2 B | [DBf]2 [DBf] [DBf]>_g[DBf] | [EBf]2 e/d/ [EBe]2 [EBf] | _g2 g g2 g | %31
 [DBf]2!8va(!!<(! !trill(!Tb' !trill(!Tb'3 | !trill(!Tb'6 | %33
!ff!{=a'b'=b'c''^c''d''x} e''!8va)!!<)! z [Ge]{/f} [Ge]>d[Ge] |{/f} [Ge]>d[Ge] [Ge]2 [Geg] | %35
 [Bdb]2 [Bdb] [Bdb]>a[Bdf] | [GBe]2 [GBe]{/f} [GBe]>d[GBe] | %37
!<(! [e_g=ac'e']2!8va(! [e'_g'=a'c''e'']!<)!!>(! [e'g'a'c''e'']>[d'd''][c'c'']!>)! | %38
!<(! [bg'b']2!8va)! [Bgb] [Bgb]>!<)![Bfa][Beg] | [Bgb]2 [Bfa] [Bdf]2 [Bdg] | %40
 [GBe]2 [GBe]{/f} [GBe]>d[GBe] | %41
!<(! [e_g=ac'e']2!8va(! [e'_g'=a'c''e''] [e'g'a'c''e'']>[d'd'']!<)![c'c'']!8va)! | %42
 [Bgb]2!8va(! [e'g'b'e''] [e'g'b'e'']>[d'd''][c'c''] | [bg'b']2 [af'a'] [cc']2 [dd'] | %44
 [ee']2 [ee']/[ee']/ [ee']2!8va)! z ||[K:Ab] [ad']/4f'/4g'/4a'/4 z [CE] [CE]2 [CE] | %46
 [CE]>F[CEG] [CA]>B[CAc] | [DGe]2 [DGd] [DGB]2 (3[DGB]/c/[DGB]/ | A3- A2 (3[CE]/G/F/ | %49
 [CE]2 [CE] [CE]2 [CE] | [CE]>F[CEG] [CA]>Bc | [B,EGB]2 [B,=EGB] [B,=DFGB]>A[B,DF] | E2 E/E/ E2 |: %53
 ([ce]/[df]/) | [ce]2 [DE=A] [DEB]2 [DEB] |{/c} [DEB]>A[DEB] [DEd]>c[DEB] | %56
 [CEAc]2 [CE]/[CE]/ A3- | [CEA]>[CE][CEB] [CEA]>[CEG][CF] | [DF]2 [DE] [DG]>[DF][G,DE] | %59
 [dg]>[df][Gde] [d'g']>[d'f'][gd'e'] | [ac'e'a']2 x4 | [CE]>F[CG] [CEA]>B[CAc] | %62
{[ce][df]} [ce]2 [DE=A] [DEB]2 [DEB] |{/c} [DEB]>A[DEB] [DEd]>c[DEB] | %64
 [CEAc]2 [CE]/[CE]/ [CEA]2 [CE] | [CEA]>cB [CEA]>G[=B,F] | %66
!<(! !^![CE]2 !^![CE] !^![CEA]2 !^![CEA]!<)! | %67
 [EAc]2"^con tutta la forza."!<(! [EAc] [EAce]2 [EAce] | [EGe]>Bc [EGe]>dB!<)! |1 %69
 [EA]2 [EA] [EA]2 :|2 [EA]2 [EA] [EA]3 ||[K:Eb][Q:1/4=110] x6 | x6 | x6 | x6 | x6 | x6 | %77
[Q:1/4=115] [G,B,E]3[Q:1/4=120] [A,B,DF]3 | %78
[Q:1/4=130] [G,B,EG]2 [B,B][Q:1/4=140] [B,B][A,A][F,F] ||[Q:1/4=150] [G,E]2 [G,E]{/F} [G,E]>DE | %80
{/F} [G,E]>D[G,E] [G,E]2 [G,EG] | [A,DB]2 [A,DB] [A,DB]>A[A,F] | [G,E]2 [G,E] [G,E]2 B, | %83
 [G,E]2 [G,E]{/F} [G,E]>D[G,E] |{/F} [G,E]>D[G,E] [G,E]2 [B,_DG] | %85
 [B,DF]2 [=B,DF] [=A,CEF]>E[A,C] | B,2 x b3 | [Ge]2 [Ge]{/f} [Ge]>d[Ge] | %88
{/f} [Ge]>d[Ge] [Ge]2 [Geg] | [Afb]2 [Afb] [Afb]>af | [Ge]2 [Ge]{/f} [Ge]>d[Ge] | %91
 [e_g=ac'e']2!8va(! [e'_g'=a'c''e''] [e'g'a'c''e'']>[d'd''][c'c''] | %92
 [bg'b']2!8va)! [Bgb] [Bgb]>[Bfa][Beg] | [Bgb]2 [Bfa] [Bdf]2 [Bdg] | %94
 [GBe]2 [GBe]{/f} [GBe]>d[GBe] | [e_g=ac'e']2 [egac'e'] [egac'e']>[dd'][cc'] | %96
 [Bgb]2!8va(! [e'g'b'e''] [e'g'b'e'']>[d'd''][c'c''] | [bg'b']2 [af'a'] [cc']2 [dd'] | %98
 [ee']2 [ee']/[ee']/ [ee']2!8va)! z |] %99
V:2
"^Timpani Tromboni solo."{B,,C,D,} E,2 E,{B,,C,D,} E,2 E, |{B,,C,D,} E,2 E,{B,,C,D,} E,2 E, | %2
{B,,C,D,} [E,G,]2 [E,G,]{B,,C,D,} [E,G,]2 [E,G,] | %3
{B,,C,D,} [E,G,]2 [E,G,]{B,,C,D,} [E,G,]2 [E,G,] | %4
{B,,C,D,} [E,G,B,]2 [E,G,B,]{B,,C,D,} [E,G,B,]2 [E,G,B,] | %5
{B,,C,D,} [E,G,B,]2 [E,G,B,]{B,,C,D,} [E,G,B,]2 [E,G,B,] | !^!E,,3 !^!E,,3 | %7
 E,,3 [B,,,F,,A,,B,,]3 ||"^quasi Cor." [E,B,]2 [E,B,] [E,B,]2 [E,B,] | %9
 [E,B,]2 [E,B,] [E,B,]2 [E,B,] | [B,,B,]2 [B,,B,] [B,,B,]2 [B,,B,] | %11
 [E,B,]2 [E,B,] [E,B,]2 [E,B,] | [E,B,]2 [B,,E,B,] [E,B,]2 [B,,E,B,] | %13
 [E,B,]2 [B,,E,B,] [E,B,]2 =E, | [F,,F,]2 [F,,F,] [F,,F,]2 [F,,F,] | [B,,,B,,]2 x3 [B,F] | %16
 [E,,E,]2"^crescendo." [G,B,EB] [G,B,EB]2 [G,B,EB] | [E,,E,]2 [G,B,EB] [G,B,EB]2 [G,B,EB] | %18
 [B,,,B,,]2 [B,DFB] [B,DFB]2 [B,DFB] | [E,,E,]2 [G,B,EB] [G,B,EB]2 [G,B,EB] | %20
 [E,,E,]2 [G,B,EB] [G,B,EB]2 [G,B,EB] | [E,,E,]2 [G,B,EB] [G,B,EB]2 !^![=E,B,_D] | %22
 [F,,F,]2 [F,=B,D] [F,CE]2 [F,CE] | [B,,F,B,]2 (3B,/B,/B,/ B,2 B, || %24
 [B,,F,A,B,]2 [F,A,B,] [B,,F,A,B,]2 [F,A,B,] | [B,,E,_G,B,]2 [E,G,B,] [B,,E,G,B,]2 [E,G,B,] | %26
 [B,,_G,]2 [B,,G,] G,>A,=A, | [B,,F,B,]2 (3B,/B,/B,/ B,2 B, | %28
 [B,,F,A,B,]2 [F,A,B,] [B,,F,A,B,]2 [F,A,B,] | [B,,E,_G,B,]2 [E,G,B,] [B,,E,G,B,]2 [E,G,B,] | %30
 _G,>=G,=A, A,>B,C | [B,,F,A,B,]2[K:treble] [=A,=A] [B,B]2 [=B,=B] | %32
 [Dd][Cc][G,G] [B,B][A,A][K:bass] [D,D] | [E,,E,]2 [G,B,EB] [G,B,EB]2 [G,B,EB] | %34
 [E,,E,]2 [G,B,EB] [G,B,EB]2 [G,B,EB] | [B,,,B,,]2 [B,DFA] [B,DFA]2 [B,DFA] | %36
 [E,,E,]2 [G,B,E] [G,B,E]2 [G,B,E] | [=A,,,=A,,]2 [=A,CE_G] [A,CEG]2 [A,CEG] | %38
 [B,,,B,,]2 [G,B,DG] [G,B,DG]2 [G,B,DG] | [B,,,B,,]2 [B,DFA] [B,DFA]2 [B,DFA] | %40
 [E,,E,]2 [G,B,E] [G,B,E]2 [G,B,E] | [=A,,,=A,,]2 [=A,CE_G] [A,CEG]2 [A,CEG] | %42
 [B,,,B,,]2 [G,B,DG] [G,B,DG]2 [G,B,DG] | [B,,,B,,]2 [B,FA] [B,DFA]2 [B,DFA] | %44
 [E,,E,]2 [G,B,EG]/[G,B,EG]/ [G,B,EG]2 z ||[K:Ab] [A,,E,A,C]2 [A,,E,A,] [A,,E,A,]2 [A,,E,A,] | %46
 [A,,E,A,]2 [A,,E,A,] [A,,E,A,]2 [A,,E,A,] | %47
 [A,,E,G,]2 [A,,E,G,] [A,,E,G,]2 (3[A,,E,]/G,/[A,,E,]/ | %48
 [A,,E,A,]2 [A,,E,A,] [A,,E,A,]2 [A,,E,A,] | [A,,E,]2 [A,,E,] [A,,E,]>C,D, | E,2 =E, F,2 _E, | %51
 [B,,G,]2 [B,,G,] [B,,A,]2 [B,,A,] | B,2 B,/B,/ B,2 |: z | [E,G,B,DE]2 [E,,_G,] [E,,=G,]2 [E,,G,] | %55
 [E,,G,]2 [E,,G,] [G,,B,]2 [E,,G,] | [A,,E,A,]2 [E,,E,] [A,,E,A,]2 [E,,E,] | %57
 [A,,E,A,]2 [E,,E,] [A,,E,A,]2 [E,,E,] | [G,,E,G,]2 [E,,E,] [G,,E,G,]2 [E,,E,] | %59
 [G,,E,G,]2 [E,,E,] [G,,E,G,]2 [E,,E,] | x [A,C] x [A,C]>[B,D][=B,=D] | %61
 [A,,,C,,E,,]2 (3[A,,,C,,E,,]/A,,/[A,,,C,,E,,]/ [A,,,C,,E,,]2 (3[A,,,C,,E,,]/A,,/[A,,,C,,E,,]/ | %62
 [E,G,B,DE]2 [E,,_G,] [E,,=G,]2 [E,,G,] | [E,,G,]2 [F,,A,] [^F,,=A,]2 [G,,B,] | %64
 [A,,E,A,]2 [E,,E,] [A,,E,A,]2 [E,,E,] | [A,,E,A,]2 [E,,E,] [A,,E,A,]2 [E,,E,] | %66
 [E,,E,]>F,E, [C,,C,]>F,E, | [A,,,A,,]>F,E, [F,,,F,,]>F,E, | [E,,,E,,]2 [E,G,D] [E,G,D]2 [E,G,D] |1 %69
 [A,,E,A,]2 [A,,E,A,] [A,,E,A,]2 :|2 [A,,E,A,]2 [A,,E,A,] [A,,E,A,]3 || %71
[K:Eb]{B,,C,D,} E,2 E,{B,,C,D,} E,2 E, |{B,,C,D,} E,2 E,{B,,C,D,} E,2 E, | %73
{B,,C,D,} [E,G,]2 [E,G,]{B,,C,D,} [E,G,]2 [E,G,] | %74
{B,,C,D,} [E,G,]2 [E,G,]{B,,C,D,} [E,G,]2 [E,G,] | [E,G,B,]2 [E,G,B,] [E,G,B,]2 [E,G,B,] | %76
 [E,G,B,]2 [E,G,B,] [E,G,B,]2 [E,G,B,] |{B,,,C,,D,,} E,,3{B,,,C,,D,,} E,,3 | %78
{B,,,C,,D,,} E,,2 E,, !^![B,,,F,,A,,B,,]2 x || [E,B,]2 [E,B,] [E,B,]2 [E,B,] | %80
 [E,B,]2 [E,B,] [E,B,]2 [E,B,] | [B,,B,]2 [B,,B,] [B,,B,]2 [B,,B,] | %82
 [E,B,]2 [E,B,] [E,B,]2 [E,B,] | [E,B,]2 [B,,E,B,] [E,B,]2 [B,,E,B,] | %84
 [E,B,]2 [B,,E,B,] [E,B,]2 [=E,,=E,] | [F,,F,]2 [F,,F,] [F,,F,]2 [F,,F,] | [B,,,B,,]2 x3 [B,F] | %87
 [E,,E,]2 [G,B,EB] [G,B,EB]2 [G,B,EB] | [E,,E,]2 [G,B,EB] [G,B,EB]2 [G,B,EB] | %89
 [B,,,B,,]2 [B,DFB] [B,DFB]2 [B,DFB] | [E,,E,]2 [G,B,EB] [G,B,EB]2 [G,B,EB] | %91
 [=A,,,=A,,]2 [=A,CE_G] [A,CEG]2 [A,CEG] | [B,,,B,,]2 [G,B,DG] [G,B,DG]2 [G,B,DG] | %93
 [B,,,B,,]2 [B,DFA] [B,DFA]2 [B,DFA] | [E,,E,]2 [G,B,E] [G,B,E]2 [G,B,E] | %95
 [=A,,,=A,,]2 [=A,CE_G] [A,CEG]2 [A,CEG] | [B,,,B,,]2 [G,B,DG] [G,B,DG]2 [G,B,DG] | %97
 [B,,,B,,]2 [B,FA] [B,DFA]2 [B,DFA] | [E,,E,]2 [G,B,EG]/[G,B,EG]/ [G,B,EG]2"_FINE." z |] %99
V:3
{B,,,C,,D,,} E,,2 E,,{B,,,C,,D,,} E,,2 E,, |{B,,,C,,D,,} E,,2 E,,{B,,,C,,D,,} E,,2 E,, | %2
{B,,,C,,D,,} E,,2 E,,{B,,,C,,D,,} E,,2 E,, |{B,,,C,,D,,} E,,2 E,,{B,,,C,,D,,} E,,2 E,, | %4
{B,,,C,,D,,} E,,2 E,,{B,,,C,,D,,} E,,2 E,, |{B,,,C,,D,,} E,,2 E,,{B,,,C,,D,,} E,,2 E,, | x6 | x6 || %8
 x6 | x6 | x6 | x6 | x6 | x6 | x6 | x6 | x6 | x6 | x6 | x6 | x6 | x6 | x6 | x6 || x6 | x6 | %26
 x3 B,,3 | x6 | x6 | x6 | B,,3 B,,3 | x2[K:treble] x4 | x5[K:bass] x | x6 | x6 | x6 | x6 | x6 | %38
 x6 | x6 | x6 | x6 | x6 | x6 | x6 ||[K:Ab] x6 | x6 | x6 | x6 | x6 | A,,3- A,,2 =A,, | x6 | %52
 [E,G,]2 [E,G,]/[E,G,]/ [E,G,]2 |: x | x6 | x6 | x6 | x6 | x6 | x6 | %60
 [A,,,C,,E,,]2 (3[A,,,C,,E,,]/A,,/[A,,,C,,E,,]/ [A,,,C,,E,,]2 (3[A,,,C,,E,,]/A,,/[A,,,C,,E,,]/ | %61
 x6 | x6 | x6 | x6 | x6 | x6 | x6 | x6 |1 x5 :|2 x6 || %71
[K:Eb]{B,,,C,,D,,} E,,2 E,,{B,,,C,,D,,} E,,2 E,, |{B,,,C,,D,,} E,,2 E,,{B,,,C,,D,,} E,,2 E,, | %73
{B,,,C,,D,,} E,,2 E,,{B,,,C,,D,,} E,,2 E,, |{B,,,C,,D,,} E,,2 E,,{B,,,C,,D,,} E,,2 E,, | %75
{B,,,C,,D,,} E,,2 E,,{B,,,C,,D,,} E,,2 E,, |{B,,,C,,D,,} E,,2 E,,{B,,,C,,D,,} E,,2 E,, | x6 | x6 || %79
 x6 | x6 | x6 | x6 | x6 | x6 | x6 | x6 | x6 | x6 | x6 | x6 | x6 | x6 | x6 | x6 | x6 | x6 | x6 | %98
 x6 |] %99
V:4
 x6 | x6 | x6 | x6 | x6 | x6 | x6 | x6 || x6 | x6 | x6 | x6 | x6 | x6 | x6 | x2 [FA] [EGeg]2 [Bf] | %16
 x6 | x6 | x6 | x6 | x6 | x6 | x6 | x6 || x6 | x2 [EB] x3 | x3 [E=A]2 [EA] | x6 | x6 | x2 [EB] x3 | %30
 [E=A]>B[Ec] [Ec]>de | x2!8va(! x4 | x6 | x!8va)! x5 | x6 | x6 | x6 | x2!8va(! x4 | x2!8va)! x4 | %39
 x6 | x6 | x2!8va(! x4!8va)! | x2!8va(! x4 | x6 | x5!8va)! x ||[K:Ab] x6 | x6 | x6 | %48
 [CE] z [CE] [CE] z x | x6 | x5 [E_G] | x6 | x5 |: x | x6 | x6 | x3 [CE]2 [CE] | x6 | x6 | x6 | %60
 x6 | x6 | x6 | x6 | x6 | x6 | x6 | x6 | x6 |1 x5 :|2 x6 ||[K:Eb] x6 | x6 | x6 | x6 | x6 | x6 | %77
 x6 | x6 || x6 | x6 | x6 | x6 | x6 | x6 | x6 | x2 [FAB] [EGeg]2 [Bf] | x6 | x6 | x6 | x6 | %91
 x2!8va(! x4 | x2!8va)! x4 | x6 | x6 | x6 | x2!8va(! x4 | x6 | x5!8va)! x |] %99

